src/icon.svg

<svg clip-rule="evenodd" fill-rule="evenodd" stroke-linejoin="round" stroke-miterlimit="1.41421" viewBox="0 0 1250 1250" xmlns="http://www.w3.org/2000/svg"><g fill="#012b45" fill-rule="nonzero" transform="matrix(4.16667 0 0 4.16667 16.6667 212.5)"><path d="m289.906 5.223c-3.522-5.018-10.436-6.247-15.468-2.718l-272.439 190.758c2.005 2.856 5.321 4.737 9.084 4.73l.013.007v-.007h269.72c6.131 0 11.101-4.97 11.101-11.108v-175.468c-.034-2.143-.686-4.298-2.011-6.194z"/><path d="m17.479 2.496c-5.025-3.523-11.946-2.3-15.468 2.719-1.325 1.894-1.977 4.057-2.011 6.199l.006 175.805 129.704-106.25z"/></g></svg>

<?xml version="1.0" encoding="UTF-8" standalone="no"?>
<!DOCTYPE svg PUBLIC "-//W3C//DTD SVG 1.1//EN" "http://www.w3.org/Graphics/SVG/1.1/DTD/svg11.dtd">
<svg width="100%" height="100%" viewBox="0 0 1217 825" version="1.1" xmlns="http://www.w3.org/2000/svg" xmlns:xlink="http://www.w3.org/1999/xlink" xml:space="preserve" xmlns:serif="http://www.serif.com/" style="fill-rule:evenodd;clip-rule:evenodd;stroke-linejoin:round;stroke-miterlimit:1.41421;">
    <g transform="matrix(4.16667,0,0,4.16667,0,0)">
        <path d="M289.906,5.223C286.384,0.205 279.47,-1.024 274.438,2.505L1.999,193.263C4.004,196.119 7.32,198 11.083,197.993L11.096,198L11.096,197.993L280.816,197.993C286.947,197.993 291.917,193.023 291.917,186.885L291.917,11.417C291.883,9.274 291.231,7.119 289.906,5.223Z" style="fill:rgb(1,43,69);fill-rule:nonzero;"/>
        <path d="M17.479,2.496C12.454,-1.027 5.533,0.196 2.011,5.215C0.686,7.109 0.034,9.272 0,11.414L0.006,187.219L129.71,80.969L17.479,2.496Z" style="fill:rgb(1,43,69);fill-rule:nonzero;"/>
    </g>
</svg>
